; generated by PrusaSlicer 2.7.4+MacOS-x64 on 2024-12-13 at 01:47:56 UTC


;
;

;
;

;
;

;
;

;
;
; 

; external perimeters extrusion width = 0.45mm
; perimeters extrusion width = 0.45mm
; infill extrusion width = 0.45mm
; solid infill extrusion width = 0.45mm
; top infill extrusion width = 0.42mm
; support material extrusion width = 0.36mm
; first layer extrusion width = 0.50mm

M73 P0 R21

EXCLUDE_OBJECT_DEFINE NAME='eyeline_stl' CENTER=124.998,112.699 POLYGON=[[189.458,86.712],[191.048,87.438],[191.168,87.579],[190.382,90.446],[189.492,92.626],[188.090,95.325],[186.683,97.689],[184.934,100.334],[182.821,103.165],[181.647,104.580],[179.083,107.301],[176.205,109.825],[174.624,111.018],[171.130,113.278],[167.129,115.382],[164.907,116.384],[160.111,118.248],[154.948,119.878],[149.565,121.214],[144.108,122.192],[138.649,122.817],[133.190,123.161],[127.730,123.298],[119.540,123.251],[114.080,123.020],[108.622,122.544],[103.164,121.751],[97.725,120.587],[92.434,119.096],[87.436,117.341],[82.877,115.385],[80.802,114.349],[77.065,112.169],[73.795,109.825],[70.917,107.301],[69.601,105.966],[67.179,103.165],[66.082,101.743],[64.135,98.962],[62.566,96.457],[61.355,94.312],[60.508,92.626],[59.765,90.864],[59.142,88.884],[58.832,87.579],[58.952,87.438],[60.542,86.712],[60.726,86.715],[60.838,86.822],[64.461,93.271],[66.114,95.934],[68.069,98.564],[69.503,100.102],[70.278,100.813],[73.212,103.049],[75.897,104.751],[79.181,106.530],[82.504,108.096],[87.980,110.330],[91.842,111.666],[97.893,113.367],[102.093,114.297],[106.443,115.064],[113.241,115.903],[120.262,116.359],[125.000,116.447],[129.738,116.359],[136.759,115.903],[143.557,115.064],[147.907,114.297],[152.107,113.367],[158.158,111.666],[163.894,109.611],[169.182,107.323],[172.470,105.672],[175.540,103.872],[177.888,102.272],[179.724,100.812],[180.497,100.102],[181.927,98.569],[183.879,95.945],[185.518,93.306],[188.972,87.111],[189.274,86.715]]

;TYPE:Custom
M17 ; enable steppers
M862.1 P0.4 ; nozzle diameter check
M862.3 P "MK4" ; printer model check
M862.5 P2 ; g-code level check
M862.6 P"Input shaper" ; FW feature check
M115 U5.1.2+13478

M555 X57.4794 Y82.9937 W135.036 H41.2061

G90 ; use absolute coordinates
M83 ; extruder relative mode

M140 S85 ; set bed temp
M104 T0 S175 ; set extruder temp for bed leveling
M109 T0 R175 ; wait for temp

M84 E ; turn off E motor

G28 ; home all without mesh bed level

G1 X42 Y-4 Z5 F4800

M302 S160 ; lower cold extrusion limit to 160C


G1 E-2 F2400 ; retraction


M84 E ; turn off E motor

G29 P9 X10 Y-4 W32 H4



G0 Z40 F10000

M190 S85 ; wait for bed temp

M107

;
; MBL
;
M84 E ; turn off E motor
G29 P1 ; invalidate mbl & probe print area
G29 P1 X0 Y0 W50 H20 C ; probe near purge place
G29 P3.2 ; interpolate mbl probes
G29 P3.13 ; extrapolate mbl outside probe area
G29 A ; activate mbl

; prepare for purge
M104 S240
G0 X0 Y-4 Z15 F4800 ; move away and ready for the purge
M109 S240

G92 E0
M569 S0 E ; set spreadcycle mode for extruder

;
; Extrude purge line
;
G92 E0 ; reset extruder position
G1 E2 F2400 ; deretraction after the initial one before nozzle cleaning
G0 E7 X15 Z0.2 F500 ; purge
G0 X25 E4 F500 ; purge
G0 X35 E4 F650 ; purge
G0 X45 E4 F800 ; purge
G0 X48 Z0.05 F8000 ; wipe, move close to the bed
G0 X51 Z0.2 F8000 ; wipe, move quickly away from the bed

G92 E0
M221 S100 ; set flow to 100%
G21 ; set units to millimeters
G90 ; use absolute coordinates
M83 ; use relative distances for extrusion
M900 K0.07 ; Filament gcode


M572 S0.055 ; Filament gcode


M142 S36 ; set heatbreak target temp
M107
;LAYER_CHANGE
;Z:0.2
;HEIGHT:0.2
G1 E-.8 F2100
G1 Z1.7 F720
EXCLUDE_OBJECT_START NAME='eyeline_stl'
G1 X63.76 Y92.396 F18000
G1 Z.2 F720
G1 E.8 F2100
M204 S500
;TYPE:Support material interface
;WIDTH:0.36
G1 F2400
G1 X63.897 Y92.62 E.00692
M204 S4000
G1 X63.897 Y92.62 F18000
G1 X63.76 Y92.396
M204 S500
G1 F2400
G1 X63.266 Y91.538 E.0261
G1 X62.808 Y91.802 E.01394
G1 X64.256 Y93.251 E.05401
G1 X64.731 Y94.113 E.02595
G1 X64.518 Y94.243 E.00658
G1 X62.355 Y92.08 E.08065
G1 X61.902 Y92.359 E.01403
G1 X64.075 Y94.532 E.08102
G1 X63.633 Y94.821 E.01392
G1 X61.923 Y93.111 E.06376
G1 X61.632 Y92.601 E.01548
M204 S4000
G1 E-.16 F2100
;WIPE_START
G1 F14400
G1 X61.923 Y93.111 E-.08135
G1 X63.633 Y94.821 E-.33504
G1 X64.075 Y94.532 E-.07316
G1 X63.307 Y93.764 E-.15045
;WIPE_END
G1 X62.409 Y93.956 Z.216 F18000
G1 Z.2 F720
G1 E.8 F2100
M204 S500
G1 F2400
G1 X62.917 Y94.83 E.02665
G1 X63.19 Y95.11 E.01031
G1 X63.5 Y94.908 E.00976
M204 S4000
G1 E-.16 F2100
;WIPE_START
G1 F14400
G1 X63.19 Y95.11 E-.05126
G1 X62.917 Y94.83 E-.05418
G1 X62.409 Y93.956 E-.14005
;WIPE_END
G1 E-.39451 F2100
G1 X63.084 Y87.353 Z.316 F18000
G1 Z.2 F720
G1 E.8 F2100
M204 S500
;TYPE:Support material
;WIDTH:0.5
G1 F2400
G1 X64.013 Y87.458 E.03553
G1 X65.143 Y88.267 E.05282
G3 X66.233 Y89.867 I-3.306 J3.423 E.0741
G1 X67.712 Y92.78 E.12417
G1 X65.188 Y94.062 E.10759
G1 X63.462 Y91.034 E.13247
G1 X62.987 Y91.212 E.01928
G1 X61.033 Y92.414 E.08719
G1 X61.286 Y92.818 E.01812
G2 X62.768 Y95.318 I40.856 J-22.54 E.11047
G1 X63.107 Y95.976 E.02813
G1 X63.398 Y95.462 E.02245
G1 X64.886 Y94.491 E.06753
G1 X65.425 Y94.435 E.0206
G1 X66.712 Y95.891 E.07386
G1 X66.675 Y95.916 E.0017
G2 X65.609 Y95.433 I-.886 J.537 E.04727
G1 X64.143 Y96.437 E.06753
G2 X63.8 Y97.369 I.38 J.668 E.04103
G2 X66.323 Y100.989 I13.542 J-6.748 E.1683
G2 X73.419 Y106.653 I21.591 J-19.772 E.34647
G2 X105.867 Y117.71 I45.179 J-79.447 E1.31062
G1 X106.665 Y117.821 E.03062
G1 X106.77 Y119.152 E.05074
G1 X106.463 Y120.359 E.04733
G1 X106.561 Y121.545 E.04523
G1 X104.478 Y123.965 E.12135
G3 X100.07 Y123.168 I4.854 J-39.45 E.17034
M73 P1 R21
G2 X98.648 Y122.733 I-4.221 J11.256 E.05655
G1 X96.739 Y122.212 E.07521
G2 X93.664 Y121.341 I-45.59 J155.246 E.12147
G1 X92.564 Y120.951 E.04436
G3 X90.432 Y120.239 I2.481 J-10.976 E.08557
G3 X89.327 Y119.909 I.245 J-2.837 E.04414
G3 X88.173 Y119.5 I-.027 J-1.759 E.04753
G1 X88.018 Y119.482 E.00593
G1 X86.552 Y118.86 E.06052
G2 X85.925 Y118.694 I-.658 J1.22 E.02488
G1 X84.458 Y118.021 E.06134
G2 X83.798 Y117.82 I-.755 J1.291 E.02646
G1 X82.335 Y117.096 E.06204
G2 X81.62 Y116.848 I-.868 J1.348 E.02904
G1 X80.174 Y116.053 E.06272
G2 X79.427 Y115.744 I-1 J1.364 E.03102
G1 X77.991 Y114.878 E.06373
G2 X77.187 Y114.48 I-1.248 J1.512 E.0344
G1 X75.906 Y113.633 E.05837
G2 X74.816 Y112.97 I-2.316 J2.575 E.04877
G1 X73.323 Y111.844 E.07107
G2 X72.24 Y111.101 I-2.382 J2.312 E.05025
G3 X69.498 Y108.671 I27.619 J-33.922 E.13929
G1 X69.201 Y108.536 E.0124
G3 X61.717 Y100.503 I76.244 J-78.532 E.41745
G1 X61.521 Y100.293 E.01092
G3 X60.491 Y98.834 I1.873 J-2.415 E.06888
G1 X59.968 Y97.73 E.04643
G1 X60.269 Y96.709 E.04046
G1 X58.678 Y94.292 E.10998
G3 X57.836 Y92.486 I3.738 J-2.842 E.07631
G1 X57.71 Y91.208 E.04881
G3 X58.82 Y89.108 I5.847 J1.748 E.09086
G1 X61.969 Y87.225 E.13945
G1 X63.016 Y87.345 E.04005
M204 S4000
G1 E-.16 F2100
;WIPE_START
G1 F14400
G1 X61.969 Y87.225 E-.146
G1 X58.909 Y89.054 E-.494
;WIPE_END
G1 X106.145 Y121.713 Z1.202 F18000
G1 Z.2 F720
G1 E.8 F2100
M204 S500
G1 F2400
G1 X106.145 Y118.164 E.13488
G1 X105.574 Y118.08 E.02194
G1 X105.574 Y122.061 E.1513
G1 X105.003 Y122.725 E.03328
G1 X105.003 Y117.988 E.18004
G1 X104.431 Y117.897 E.02201
G1 X104.431 Y123.388 E.20869
G1 X104.313 Y123.525 E.00687
G1 X103.86 Y123.46 E.01739
G1 X103.86 Y117.805 E.21493
G1 X103.289 Y117.708 E.02201
G1 X103.289 Y123.377 E.21546
G1 X102.717 Y123.301 E.02193
G1 X102.717 Y117.604 E.21652
G1 X102.146 Y117.5 E.02206
G1 X102.146 Y123.201 E.21667
G1 X101.575 Y123.064 E.02232
G1 X101.575 Y117.396 E.21542
G1 X101.003 Y117.285 E.02215
G1 X101.003 Y122.937 E.21481
G1 X100.432 Y122.822 E.02214
G1 X100.432 Y117.168 E.21489
G1 X99.861 Y117.051 E.02215
G1 X99.861 Y122.643 E.21253
G1 X99.289 Y122.493 E.02247
G1 X99.289 Y116.934 E.21128
G1 X98.718 Y116.807 E.02223
G1 X98.718 Y122.327 E.20979
G1 X98.147 Y122.177 E.02244
G1 X98.147 Y116.677 E.20903
G1 X97.575 Y116.547 E.02229
G1 X97.575 Y122.028 E.20831
G1 X97.004 Y121.864 E.02258
G1 X97.004 Y116.416 E.20706
G1 X96.433 Y116.273 E.02237
G1 X96.433 Y121.692 E.20596
G1 X95.861 Y121.555 E.02235
G1 X95.861 Y116.129 E.20622
G1 X95.29 Y115.985 E.02238
G1 X95.29 Y121.374 E.20482
G1 X94.719 Y121.191 E.02279
G1 X94.719 Y115.836 E.20352
G1 X94.147 Y115.678 E.02255
G1 X94.147 Y121.041 E.20383
G1 X93.576 Y120.874 E.02261
G1 X93.576 Y115.52 E.20349
G1 X93.004 Y115.362 E.02255
G1 X93.004 Y120.671 E.20178
G1 X92.433 Y120.482 E.02286
G1 X92.433 Y115.194 E.20098
G1 X91.862 Y115.022 E.02266
G1 X91.862 Y120.344 E.20227
G1 X91.29 Y120.137 E.02312
G1 X91.29 Y114.849 E.20098
G1 X90.719 Y114.675 E.02269
G1 X90.719 Y119.914 E.19912
G2 X90.175 Y119.801 I-.503 J1.05 E.02132
G1 X90.148 Y114.487 E.20197
G1 X89.576 Y114.3 E.02287
G1 X89.576 Y119.565 E.2001
G1 X89.005 Y119.462 E.02205
G1 X89.005 Y114.112 E.20333
G1 X88.434 Y113.916 E.02294
G1 X88.434 Y119.177 E.19995
G2 X88.125 Y119.08 I-.289 J.384 E.01255
G1 X87.862 Y118.969 E.01085
G1 X87.862 Y113.714 E.19972
G1 X87.291 Y113.511 E.02303
G1 X87.291 Y118.726 E.1982
G1 X86.72 Y118.484 E.02357
G1 X86.72 Y113.307 E.19676
G1 X86.148 Y113.089 E.02326
G1 X86.148 Y118.31 E.19843
G1 X85.577 Y118.082 E.02337
G1 X85.577 Y112.872 E.19801
G1 X85.006 Y112.655 E.02322
G1 X85.006 Y117.82 E.1963
G1 X84.434 Y117.551 E.02402
G1 X84.434 Y112.427 E.19474
G1 X83.863 Y112.196 E.02341
G1 X83.863 Y117.393 E.19752
G1 X83.292 Y117.113 E.02417
G1 X83.292 Y111.964 E.19569
G1 X82.72 Y111.727 E.02353
G1 X82.72 Y116.828 E.19387
G1 X82.149 Y116.535 E.02439
G1 X82.149 Y111.481 E.19208
G1 X81.577 Y111.234 E.02368
G1 X81.577 Y116.355 E.19463
G1 X81.006 Y116.041 E.02477
G1 X81.006 Y110.986 E.19212
G1 X80.435 Y110.725 E.02386
G1 X80.435 Y115.727 E.19011
G1 X79.863 Y115.426 E.02457
G1 X79.863 Y110.465 E.18855
G1 X79.292 Y110.202 E.02389
G1 X79.292 Y115.183 E.18931
G1 X78.721 Y114.838 E.02536
M73 P2 R21
G1 X78.721 Y109.927 E.18665
G1 X78.149 Y109.651 E.02414
G1 X78.149 Y114.491 E.18395
G2 X77.578 Y114.161 I-1.465 J1.877 E.02515
G1 X77.578 Y109.373 E.18197
G1 X77.007 Y109.081 E.02437
G1 X77.007 Y113.868 E.18194
G1 X76.435 Y113.49 E.02606
G1 X76.435 Y108.789 E.17867
G1 X75.864 Y108.491 E.02448
G1 X75.864 Y113.095 E.17498
G1 X75.293 Y112.708 E.02622
G1 X75.293 Y108.182 E.17202
G1 X74.721 Y107.873 E.02471
G1 X74.721 Y112.395 E.17186
G1 X74.15 Y111.967 E.02712
G1 X74.15 Y107.549 E.16791
G1 X73.579 Y107.22 E.02505
G1 X73.579 Y111.522 E.1635
G1 X73.007 Y111.06 E.02795
G1 X73.007 Y106.883 E.15875
G1 X72.436 Y106.53 E.02551
G1 X72.436 Y110.729 E.15959
G1 X71.865 Y110.25 E.02833
G1 X71.865 Y106.173 E.15495
G1 X71.293 Y105.792 E.02612
G1 X71.293 Y109.767 E.15108
G1 X70.722 Y109.249 E.0293
G1 X70.722 Y105.408 E.14598
G1 X70.15 Y104.993 E.02686
G1 X70.15 Y108.724 E.1418
G2 X69.579 Y108.256 I-1.635 J1.416 E.0282
G1 X69.579 Y104.57 E.14009
G1 X69.008 Y104.115 E.02775
G1 X69.008 Y107.785 E.13948
G1 X68.436 Y107.23 E.03029
G1 X68.436 Y103.64 E.13644
G1 X67.865 Y103.138 E.0289
G1 X67.865 Y106.659 E.13382
G1 X67.294 Y106.075 E.03104
G1 X67.294 Y102.595 E.13226
G1 X66.722 Y102.026 E.03066
G1 X66.722 Y105.473 E.13101
G1 X66.151 Y104.864 E.03173
G1 X66.151 Y101.409 E.13131
G1 X65.58 Y100.742 E.03337
G1 X65.58 Y104.244 E.1331
G1 X65.008 Y103.614 E.03234
G1 X65.008 Y100.031 E.13618
G1 X64.437 Y99.269 E.03619
G1 X64.437 Y102.977 E.14093
G1 X63.866 Y102.324 E.03297
G1 X63.866 Y98.412 E.14868
G3 X63.371 Y96.742 I1.901 J-1.472 E.06774
G3 X63.866 Y96.129 I1.019 J.317 E.03067
G1 X63.866 Y95.648 E.01828
G1 X64.437 Y95.276 E.0259
G1 X64.437 Y95.737 E.01752
G1 X65.008 Y95.347 E.02628
G1 X65.008 Y94.681 E.02531
M204 S4000
G1 E-.16 F2100
;WIPE_START
G1 F14400
G1 X65.008 Y95.347 E-.09227
G1 X64.437 Y95.737 E-.0958
G1 X64.437 Y95.276 E-.06387
G1 X63.866 Y95.648 E-.09441
G1 X63.866 Y96.129 E-.06664
G2 X63.371 Y96.742 I.525 J.93 E-.1118
G2 X63.446 Y97.566 I2.396 J.198 E-.11521
;WIPE_END
G1 X66.722 Y93.052 Z.297 F18000
G1 Z.2 F720
G1 E.8 F2100
M204 S500
G1 F2400
G1 X66.722 Y91.739 E.0499
G1 X66.151 Y90.613 E.04798
G1 X66.151 Y93.111 E.09494
G1 X65.58 Y93.401 E.02434
G1 X65.58 Y89.466 E.14955
G2 X65.096 Y88.858 I-1.616 J.789 E.02977
G1 X65.008 Y88.751 E.00527
G1 X65.008 Y92.908 E.15799
G1 X64.437 Y91.931 E.04301
G1 X64.437 Y88.267 E.13926
G1 X63.866 Y87.859 E.02667
G1 X63.866 Y90.921 E.11638
G1 X63.665 Y90.526 E.01684
G1 X63.294 Y90.657 E.01495
G1 X63.294 Y87.791 E.10893
G1 X62.723 Y87.725 E.02185
G1 X62.723 Y90.891 E.12033
G1 X62.152 Y91.242 E.02547
G1 X62.152 Y87.66 E.13614
G1 X62.06 Y87.65 E.00352
G1 X61.58 Y87.937 E.02126
G1 X61.58 Y91.594 E.13899
G1 X61.009 Y91.945 E.02547
G1 X61.009 Y88.278 E.13937
G1 X60.438 Y88.62 E.0253
G1 X60.438 Y96.217 E.28873
G1 X59.866 Y95.349 E.03951
G1 X59.866 Y88.961 E.24278
G1 X59.295 Y89.303 E.0253
G1 X59.295 Y94.481 E.1968
G1 X58.724 Y93.624 E.03914
G1 X58.724 Y89.961 E.13922
G2 X58.152 Y91.207 I3.784 J2.49 E.05231
G1 X58.152 Y92.776 E.05963
M204 S4000
G1 X58.152 Y92.776 F18000
G1 X63.294 Y101.978
M204 S500
G1 F2400
G1 X63.294 Y96.487 E.20869
G1 X63.094 Y96.85 E.01575
G1 X62.723 Y96.129 E.03082
G1 X62.723 Y101.004 E.18528
G1 X62.152 Y100.344 E.03317
G1 X62.152 Y95.136 E.19794
G1 X61.58 Y94.172 E.0426
G1 X61.58 Y99.784 E.21329
G3 X61.009 Y98.969 I1.104 J-1.381 E.03834
G1 X61.009 Y92.751 E.23632
M204 S4000
G1 X61.009 Y92.751 F18000
G1 X60.438 Y98.241
M204 S500
G1 F2400
G1 X60.438 Y96.866 E.05226
M204 S4000
G1 E-.16 F2100
;WIPE_START
G1 F14400
G1 X60.438 Y98.241 E-.19049
;WIPE_END
G1 E-.44951 F2100
G1 X146.332 Y95.585 Z1.7 F18000
G1 X185.674 Y94.369
G1 Z.2 F720
G1 E.8 F2100
M204 S500
;TYPE:Support material interface
;WIDTH:0.36
G1 F2400
G1 X185.269 Y94.113 E.01263
G1 X185.441 Y93.778 E.00993
G1 X186.704 Y95.041 E.04709
G1 X186.862 Y95.144 E.00497
G1 X187.132 Y94.737 E.01288
G1 X185.705 Y93.311 E.05319
G1 X185.974 Y92.848 E.01412
G1 X187.394 Y94.268 E.05295
G2 X187.678 Y93.821 I-.884 J-.878 E.01407
G1 X186.252 Y92.395 E.05317
G1 X186.452 Y92.024 E.01111
G1 X186.516 Y91.927 E.00306
G1 X187.939 Y93.35 E.05306
G1 X188.203 Y92.883 E.01414
G1 X187.008 Y91.689 E.04454
G1 X186.815 Y91.57 E.00598
G2 X186.717 Y91.596 I-.044 J.031 E.00346
M204 S4000
G1 X186.717 Y91.596 F18000
G1 X187.938 Y92.26
M204 S500
G1 F2400
G1 X188.395 Y92.54 E.01413
G1 X188.284 Y92.747 E.00619
M204 S4000
G1 E-.16 F2100
;WIPE_START
G1 F14400
G1 X188.395 Y92.54 E-.03254
G1 X187.938 Y92.26 E-.07425
;WIPE_END
G1 E-.53321 F2100
G1 X188.408 Y87.448 Z.284 F18000
G1 Z.2 F720
G1 E.8 F2100
M204 S500
;TYPE:Support material
;WIDTH:0.5
G1 F2400
G1 X190.807 Y88.885 E.10628
G1 X191.678 Y89.664 E.04441
G1 X192.285 Y91.176 E.06192
G3 X191.846 Y93.42 I-5.876 J.014 E.08746
G1 X189.744 Y96.779 E.1506
G1 X189.893 Y97.985 E.04618
G1 X189.181 Y99.555 E.06552
G2 X186.17 Y102.918 I49.87 J47.688 E.17159
G3 X180.799 Y108.537 I-63.813 J-55.624 E.29553
G2 X180.271 Y108.895 I.352 J1.086 E.02457
G1 X177.882 Y111.058 E.12248
G2 X176.678 Y111.844 I1.217 J3.177 E.05506
M73 P3 R21
G1 X175.821 Y112.512 E.0413
G3 X174.796 Y113.114 I-1.949 J-2.143 E.0455
G1 X172.815 Y114.48 E.09145
G2 X172.01 Y114.877 I.441 J1.907 E.03442
G1 X170.577 Y115.743 E.06364
G2 X169.827 Y116.052 I.25 J1.675 E.03113
G1 X168.383 Y116.848 E.06267
G1 X167.979 Y116.929 E.01566
G1 X166.319 Y117.813 E.07148
G2 X165.353 Y118.292 I.305 J1.825 E.04158
G2 X163.95 Y118.751 I.307 J3.311 E.05658
G1 X163.507 Y118.833 E.01712
G1 X161.983 Y119.482 E.06296
G2 X161.223 Y119.86 I.454 J1.87 E.03253
G2 X159.767 Y120.266 I.203 J3.541 E.05789
G2 X158.341 Y120.756 I.712 J4.386 E.05759
G3 X157.217 Y121.029 I-2.682 J-8.609 E.04399
G1 X155.804 Y121.53 E.05698
G1 X155.552 Y121.533 E.00958
G1 X154.562 Y121.853 E.03954
G3 X153.398 Y122.173 I-1.649 J-3.728 E.04605
G1 X151.798 Y122.624 E.06318
G2 X149.511 Y123.271 I7.726 J31.694 E.09035
G1 X148.59 Y123.943 E.04333
G1 X147.37 Y123.707 E.04723
G1 X145.529 Y123.965 E.07065
G1 X143.509 Y121.631 E.11732
G1 X143.543 Y120.414 E.04627
G1 X143.23 Y119.158 E.0492
G1 X143.335 Y117.821 E.05097
G2 X175.217 Y107.438 I-12.218 J-91.659 E1.28144
G2 X182.867 Y101.863 I-15.52 J-29.335 E.36099
G2 X185.995 Y97.831 I-15.393 J-15.168 E.1944
