; generated by PrusaSlicer 2.7.4+MacOS-x64 on 2024-12-13 at 14:40:49 UTC

; 

; external perimeters extrusion width = 0.40mm
; perimeters extrusion width = 0.40mm
; infill extrusion width = 0.40mm
; solid infill extrusion width = 0.40mm
; top infill extrusion width = 0.40mm
; support material extrusion width = 0.32mm
; first layer extrusion width = 0.40mm

M201 X1500 Y1500 Z100 E1250 ; sets maximum accelerations, mm/sec^2
M203 X500 Y500 Z10 E120 ; sets maximum feedrates, mm / sec
M204 S1250 T1500 ; sets acceleration (S) and retract acceleration (R), mm/sec^2
M205 X8.00 Y8.00 Z0.40 E5.00 ; sets the jerk limits, mm/sec
M205 S0 T0 ; sets the minimum extruding and travel feed rate, mm/sec
;TYPE:Custom
M80 ; Liga luminaria
G90 ; use absolute coordinates
M83 ; extruder relative mode
M140 S60 ; set final bed temp
M104 S170 ; set temporary nozzle temp to prevent oozing during homing
G4 S10 ; allow partial nozzle warmup
G28 ; home all axis
M420 S1 ;load mesh
G1 Z30 F2500
G1 X2 Y10 F3000
M104 S210 ; set final nozzle temp
M190 S60 ; wait for bed temp to stabilize
M109 S210 ; wait for nozzle temp to stabilize
G1 Z0.28 F240
G92 E0
G1 Y90 E10 F1500 ; prime the nozzle
G1 X2.3 F5000
G92 E0
G1 Y10 E10 F1200 ; prime the nozzle
G92 E0
G21 ; set units to millimeters
G90 ; use absolute coordinates
M83 ; use relative distances for extrusion
; Filament gcode
M107
;LAYER_CHANGE
;Z:0.2
;HEIGHT:0.2
G1 E-5 F2400
G1 Z.2 F7200
G1 X53.131 Y99.869
G1 Z.2
G1 E5 F2400
M204 S500
;TYPE:Skirt/Brim
;WIDTH:0.4
G1 F900
G1 X54.209 Y99.41 E.03479
G1 X55.143 Y99.149 E.02879
G1 X56.42 Y98.968 E.03829
G1 X184.305 Y99.418 E3.79709
G1 X185.966 Y99.658 E.04983
G1 X187.5 Y100.175 E.04806
G1 X188.227 Y100.55 E.02429
G1 X189.57 Y101.536 E.04947
G1 X190.552 Y102.59 E.04277
G1 X191.252 Y103.624 E.03707
G1 X191.706 Y104.571 E.03118
G1 X192.136 Y105.933 E.04241
G1 X192.291 Y106.994 E.03184
G1 X192.664 Y117.458 E.31089
G1 X192.55 Y119.055 E.04754
G1 X192.273 Y120.287 E.03749
G1 X191.876 Y121.468 E.03699
G1 X191.023 Y123.071 E.05391
G1 X190.341 Y123.99 E.03398
G1 X185.691 Y128.919 E.2012
G1 X184.734 Y129.839 E.03942
G1 X183.214 Y130.914 E.05528
G1 X176.126 Y135.444 E.24976
G1 X168.803 Y139.072 E.24265
G1 X159.313 Y142.735 E.30203
G1 X151.572 Y144.899 E.23865
G1 X146.057 Y146.212 E.16832
G1 X145.398 Y146.301 E.01974
G1 X144.062 Y146.357 E.0397
G1 X95.074 Y146.068 E1.45454
G1 X93.064 Y145.806 E.06018
G1 X86.688 Y144.221 E.19507
G1 X79.179 Y141.843 E.23386
G1 X71.949 Y138.964 E.23106
G1 X64.327 Y135.101 E.25371
G1 X62.71 Y134.173 E.05536
G1 X56.165 Y129.052 E.24674
G1 X50.092 Y123.575 E.24281
G1 X48.945 Y122.171 E.05383
G1 X48.355 Y121.184 E.03414
G1 X47.662 Y119.508 E.05385
G1 X47.28 Y117.735 E.05385
G1 X47.22 Y117.071 E.0198
G1 X47.265 Y115.351 E.05109
G1 X48.803 Y105.481 E.29659
G1 X49.046 Y104.62 E.02656
G1 X49.545 Y103.428 E.03837
G1 X50.082 Y102.527 E.03114
G1 X50.801 Y101.638 E.03395
G1 X51.433 Y101.022 E.0262
G1 X52.33 Y100.336 E.03353
G1 X53.079 Y99.899 E.02575
G1 X53.079 Y99.899 F7200
G1 X53.257 Y100.205
G1 F900
G1 X53.271 Y100.197 E.00048
G1 X54.349 Y99.738 E.03479
G1 X55.193 Y99.503 E.02601
G1 X56.47 Y99.321 E.0383
G1 X184.304 Y99.775 E3.79558
G1 X185.903 Y100.01 E.04799
G1 X187.372 Y100.509 E.04606
G1 X188.029 Y100.848 E.02195
G1 X189.317 Y101.787 E.04733
G1 X190.263 Y102.799 E.04113
G1 X190.936 Y103.79 E.03557
G1 X191.369 Y104.69 E.02965
G1 X191.784 Y105.996 E.04069
G1 X191.934 Y107.008 E.03038
G1 X192.307 Y117.471 E.31086
G1 X192.194 Y119.023 E.0462
G1 X191.929 Y120.189 E.0355
G1 X191.556 Y121.311 E.03511
G1 X190.736 Y122.858 E.05199
G1 X189.79 Y124.093 E.04619
G1 X185.432 Y128.672 E.18769
G1 X184.015 Y129.958 E.05682
G1 X176.291 Y134.941 E.27292
G1 X168.835 Y138.664 E.24744
G1 X167.478 Y139.247 E.04385
G1 X158.89 Y142.498 E.27265
G1 X151.489 Y144.552 E.22805
G1 X145.977 Y145.864 E.16823
G1 X145.382 Y145.945 E.01783
G1 X144.064 Y146 E.03917
G1 X95.076 Y145.711 E1.45454
G1 X93.15 Y145.459 E.05767
G1 X86.795 Y143.88 E.19443
G1 X79.289 Y141.504 E.23376
G1 X72.081 Y138.632 E.23038
G1 X64.488 Y134.783 E.25276
G1 X62.93 Y133.892 E.05329
G1 X56.403 Y128.786 E.24605
G1 X50.361 Y123.34 E.24151
G1 X49.251 Y121.988 E.05194
G1 X48.662 Y121.001 E.03413
G1 X47.997 Y119.382 E.05197
G1 X47.631 Y117.671 E.05195
G1 X47.578 Y117.071 E.01788
G1 X47.618 Y115.406 E.04945
G1 X49.156 Y105.536 E.29659
G1 X49.376 Y104.758 E.02401
G1 X49.874 Y103.566 E.03836
G1 X50.36 Y102.752 E.02815
G1 X51.078 Y101.862 E.03395
G1 X51.65 Y101.306 E.02368
G1 X52.547 Y100.62 E.03353
G1 X53.205 Y100.235 E.02264
G1 E-3.5 F2400
;WIPE_START
G1 F5760
G1 X53.257 Y100.205 E-.02376
G1 X53.271 Y100.197 E-.00638
G1 X54.349 Y99.738 E-.46378
G1 X55.193 Y99.503 E-.34679
G1 X56.47 Y99.321 E-.51059
G1 X56.846 Y99.322 E-.1487
;WIPE_END
G1 X185.311 Y103.314 F7200
G1 E5 F2400
;TYPE:Support material
G1 F900
G1 X186.171 Y103.644 E.02735
G1 X186.931 Y104.149 E.02709
G1 X187.54 Y104.764 E.0257
G1 X188.204 Y105.809 E.03676
G1 X188.48 Y106.589 E.02457
G1 X188.612 Y107.936 E.04019
G1 X188.37 Y109.472 E.04617
G1 X187.911 Y109.991 E.02057
G1 X187.593 Y110.715 E.02348
G1 X186.218 Y111.751 E.05112
G1 X185.508 Y112.006 E.0224
G1 X186.491 Y112.623 E.03446
G1 X187.336 Y113.401 E.0341
G1 X188.018 Y114.312 E.03379
G1 X188.3 Y114.87 E.01856
G1 X188.536 Y115.359 E.01612
G1 X188.845 Y116.449 E.03364
G1 X188.952 Y117.589 E.034
G1 X188.851 Y118.724 E.03383
G1 X188.54 Y119.836 E.03428
G1 X188.039 Y120.859 E.03382
G1 X187.358 Y121.779 E.03399
G1 X186.52 Y122.559 E.03399
G1 X185.575 Y123.16 E.03325
G1 X184.38 Y123.642 E.03826
G1 X184.175 Y124.387 E.02294
G1 X183.677 Y125.426 E.03421
G1 X183 Y126.358 E.0342
G1 X182.167 Y127.155 E.03423
G1 X181.205 Y127.79 E.03422
G1 X180.145 Y128.241 E.0342
G1 X179.021 Y128.496 E.03422
G1 X177.87 Y128.545 E.03421
G1 X177.499 Y128.494 E.01112
G1 X176.943 Y129.751 E.04081
G1 X176.268 Y130.684 E.03419
G1 X175.436 Y131.482 E.03423
G1 X174.475 Y132.117 E.0342
G1 X173.415 Y132.571 E.03424
G1 X172.291 Y132.827 E.03423
G1 X171.14 Y132.878 E.03421
G1 X170.079 Y132.733 E.0318
G1 X169.809 Y133.296 E.01854
G1 X169.133 Y134.227 E.03416
G1 X168.302 Y135.023 E.03417
G1 X167.342 Y135.657 E.03416
G1 X166.285 Y136.109 E.03413
G1 X165.163 Y136.365 E.03417
G1 X164.014 Y136.416 E.03415
G1 X162.874 Y136.261 E.03416
G1 X161.778 Y135.904 E.03422
G1 X161.517 Y136.449 E.01794
G1 X160.841 Y137.38 E.03416
G1 X160.01 Y138.176 E.03417
G1 X159.05 Y138.811 E.03417
G1 X157.992 Y139.264 E.03417
G1 X156.87 Y139.52 E.03417
G1 X155.72 Y139.571 E.03418
G1 X154.58 Y139.416 E.03416
G1 X153.74 Y139.142 E.02623
G1 X152.721 Y140.199 E.04359
G1 X151.761 Y140.834 E.03417
G1 X150.703 Y141.288 E.03418
G1 X149.581 Y141.545 E.03418
G1 X148.43 Y141.597 E.03421
G1 X147.942 Y141.53 E.01463
G1 X147.405 Y141.885 E.01911
G1 X146.349 Y142.336 E.03409
G1 X145.231 Y142.591 E.03405
G1 X144.084 Y142.643 E.03409
G1 X142.947 Y142.489 E.03407
G1 X141.855 Y142.135 E.03408
G1 X140.843 Y141.591 E.03411
G1 X139.945 Y140.876 E.03408
G1 X139.189 Y140.012 E.03409
G1 X138.599 Y139.026 E.03412
G1 X138.195 Y137.951 E.0341
G1 X137.988 Y136.821 E.03411
G1 X137.987 Y135.672 E.03412
G1 X138.192 Y134.541 E.03413
G1 X138.778 Y133.157 E.04462
G1 X144.065 Y132.28 E.15912
G1 X148.374 Y131.348 E.1309
G1 X153.942 Y129.823 E.17141
G1 X158.533 Y128.279 E.14382
G1 X162.351 Y126.779 E.1218
G1 X167.587 Y124.391 E.17087
G1 X171.993 Y122.008 E.14873
G1 X173.952 Y120.764 E.0689
G1 X175.481 Y119.678 E.05568
G1 X177.388 Y118.08 E.07387
G1 X179.051 Y116.375 E.07072
G1 X180.516 Y114.538 E.06976
G1 X181.149 Y113.591 E.03382
G1 X181.537 Y112.816 E.02573
G1 X181.552 Y112.395 E.01251
G1 X181.451 Y112.208 E.00631
G1 X179.953 Y111.182 E.05391
G1 X179.619 Y110.441 E.02413
G1 X179.615 Y110.184 E.00763
G1 X179.221 Y109.887 E.01465
G1 X178.518 Y108.67 E.04173
G1 X178.36 Y107.393 E.0382
G1 X178.57 Y106.336 E.032
G1 X179.221 Y105.204 E.03877
G1 X180.264 Y104.42 E.03874
G1 X181.229 Y104.137 E.02986
G1 X181.67 Y103.823 E.01607
G1 X182.805 Y103.321 E.03685
G1 X184.291 Y103.132 E.04448
G1 X185.259 Y103.305 E.0292
G1 E-5 F2400
G1 X185.259 Y103.305 F7200
G1 X188.345 Y119.869
G1 E5 F2400
G1 F900
G1 X188.345 Y115.863 E.11894
G1 X187.948 Y114.888 E.03126
G1 X187.948 Y120.314 E.1611
G1 X187.552 Y120.978 E.02295
G1 X187.552 Y114.225 E.20051
G1 X187.155 Y113.695 E.01966
G1 X187.155 Y121.513 E.23213
G1 X186.758 Y121.898 E.01642
G1 X186.758 Y113.306 E.25511
G1 X186.361 Y112.94 E.01603
G1 X186.361 Y122.268 E.27696
G1 X185.965 Y122.532 E.01413
G1 X185.965 Y112.672 E.29276
G1 X185.568 Y112.423 E.01391
G1 X185.568 Y122.784 E.30763
G1 X185.171 Y122.983 E.01319
G1 X185.171 Y112.174 E.32093
G1 X184.778 Y111.927 E.01378
G1 X185.171 Y111.786 E.0124
G1 X185.171 Y103.616 E.24258
G1 X184.774 Y103.545 E.01197
G1 X184.774 Y123.146 E.58198
G1 X184.378 Y123.298 E.01259
G1 X184.378 Y103.474 E.5886
G1 X183.981 Y103.477 E.01179
G1 X183.981 Y123.881 E.60582
G1 X183.584 Y124.876 E.03181
G1 X183.584 Y103.507 E.63447
G1 X183.187 Y103.57 E.01193
G1 X183.187 Y125.553 E.6527
G1 X182.791 Y126.1 E.02005
G1 X182.791 Y103.667 E.66606
G1 X182.394 Y103.81 E.01253
G1 X182.394 Y126.494 E.67352
G1 X181.997 Y126.873 E.0163
G1 X181.997 Y104.015 E.67868
G1 X181.6 Y104.267 E.01396
G1 X181.6 Y111.921 E.22726
G1 X181.204 Y111.649 E.01426
G1 X181.204 Y104.47 E.21315
G1 X180.807 Y104.579 E.01222
G1 X180.807 Y111.376 E.20181
G1 X180.41 Y111.106 E.01426
G1 X180.41 Y104.712 E.18985
G1 X180.013 Y105.01 E.01474
G1 X180.013 Y110.534 E.16401
G1 X179.934 Y110.022 E.01538
G1 X179.616 Y109.783 E.01181
G1 X179.616 Y105.308 E.13287
G1 X179.466 Y105.421 E.00558
G1 X179.22 Y105.85 E.01468
G1 X179.22 Y109.242 E.10071
G1 X178.829 Y108.566 E.02319
G1 X178.823 Y106.218 E.06972
G1 X187.948 Y109.706 F7200
G1 F900
G1 X187.948 Y106.049 E.10858
G1 X187.552 Y105.329 E.0244
G1 X187.552 Y110.01 E.13898
G1 X187.333 Y110.509 E.01618
G1 X187.155 Y110.643 E.00662
G1 X187.155 Y104.832 E.17254
G1 X186.758 Y104.431 E.01675
G1 X186.758 Y110.942 E.19332
G1 X186.361 Y111.241 E.01476
G1 X186.361 Y104.156 E.21036
G1 X185.965 Y103.909 E.01386
G1 X185.965 Y111.5 E.22539
G1 X185.568 Y111.643 E.01253
G1 X185.568 Y103.585 E.23925
G1 X185.568 Y103.585 F7200
G1 X181.6 Y127.336
G1 F900
G1 X181.6 Y113.454 E.41217
G1 X181.204 Y114.09 E.02224
G1 X181.204 Y127.406 E.39537
G1 X180.807 Y127.61 E.01325
G1 X180.807 Y114.682 E.38385
G1 X180.41 Y115.209 E.01959
G1 X180.41 Y127.779 E.37322
G1 X180.013 Y127.942 E.01274
G1 X180.013 Y115.725 E.36274
G1 X179.616 Y116.2 E.01838
G1 X179.616 Y128.032 E.35131
G1 X179.22 Y128.122 E.01206
G1 X179.22 Y116.666 E.34014
G1 X178.823 Y117.095 E.01735
G1 X178.823 Y128.183 E.32922
G1 X178.426 Y128.2 E.0118
G1 X178.426 Y117.517 E.31719
G1 X178.029 Y117.904 E.01646
G1 X178.029 Y128.217 E.30621
G1 X177.633 Y128.188 E.01179
G1 X177.633 Y118.291 E.29385
G1 X177.236 Y118.643 E.01575
G1 X177.236 Y128.239 E.28492
G1 X176.839 Y129.223 E.0315
G1 X176.839 Y118.992 E.30377
G1 X176.442 Y119.322 E.01533
G1 X176.442 Y129.894 E.3139
G1 X176.046 Y130.443 E.0201
G1 X176.046 Y119.638 E.32081
G1 X175.649 Y119.953 E.01505
G1 X175.649 Y130.832 E.32301
G1 X175.252 Y131.213 E.01634
G1 X175.252 Y120.242 E.32574
G1 X174.855 Y120.531 E.01458
G1 X174.855 Y131.48 E.32509
G1 X174.459 Y131.743 E.01411
G1 X174.459 Y120.811 E.32459
G1 X174.062 Y121.077 E.01419
G1 X174.062 Y131.945 E.32268
G1 X173.665 Y132.114 E.01281
G1 X173.665 Y121.341 E.31986
G1 X173.268 Y121.598 E.01404
G1 X173.268 Y132.275 E.31701
G1 X172.872 Y132.365 E.01206
G1 X172.872 Y121.843 E.31241
G1 X172.475 Y122.088 E.01385
G1 X172.475 Y132.456 E.30784
G1 X172.078 Y132.515 E.01192
G1 X172.078 Y122.33 E.30241
G1 X171.681 Y122.558 E.01359
G1 X171.681 Y132.532 E.29614
G1 X171.285 Y132.55 E.01177
G1 X171.285 Y122.787 E.28988
G1 X170.888 Y123.015 E.01359
G1 X170.888 Y132.519 E.28219
G1 X170.491 Y132.465 E.0119
G1 X170.491 Y123.233 E.27411
G1 X170.094 Y123.448 E.01341
G1 X170.094 Y132.411 E.26612
G1 X169.891 Y132.383 E.00608
G1 X169.698 Y132.785 E.01324
G1 X169.698 Y123.662 E.27087
G1 X169.301 Y123.877 E.01341
G1 X169.301 Y133.449 E.28421
G1 X168.904 Y133.996 E.02007
G1 X168.904 Y124.08 E.29442
G1 X168.507 Y124.282 E.01323
G1 X168.507 Y134.382 E.29988
G1 X168.111 Y134.762 E.0163
G1 X168.111 Y124.485 E.30514
G1 X167.714 Y124.687 E.01323
G1 X167.714 Y135.027 E.30701
G1 X167.317 Y135.289 E.01412
G1 X167.317 Y124.879 E.30909
G1 X166.92 Y125.07 E.01308
G1 X166.92 Y135.488 E.30932
G1 X166.524 Y135.658 E.0128
G1 X166.524 Y125.262 E.30867
G1 X166.127 Y125.453 E.01308
G1 X166.127 Y135.816 E.30769
G1 X165.73 Y135.906 E.01209
G1 X165.73 Y125.636 E.30493
G1 X165.333 Y125.817 E.01295
G1 X165.333 Y135.997 E.30226
G1 X164.937 Y136.054 E.01188
G1 X164.937 Y125.998 E.29858
G1 X164.54 Y126.179 E.01295
G1 X164.54 Y136.071 E.29371
G1 X164.143 Y136.089 E.0118
G1 X164.143 Y126.356 E.28899
G1 X163.746 Y126.528 E.01285
G1 X163.746 Y136.056 E.2829
G1 X163.35 Y136.001 E.01187
G1 X163.35 Y126.698 E.27622
G1 X162.953 Y126.869 E.01283
G1 X162.953 Y135.947 E.26954
G1 X162.556 Y135.819 E.01238
G1 X162.556 Y127.04 E.26066
G1 X162.159 Y127.203 E.01274
G1 X162.159 Y135.69 E.25199
G1 X161.763 Y135.561 E.01237
G1 X161.763 Y127.364 E.24338
G1 X161.366 Y127.525 E.01272
G1 X161.366 Y136.02 E.25223
G1 X160.969 Y136.657 E.02229
G1 X160.969 Y127.686 E.26636
G1 X160.572 Y127.847 E.01272
G1 X160.572 Y137.193 E.27749
G1 X160.175 Y137.573 E.01632
G1 X160.175 Y127.998 E.28429
G1 X159.779 Y128.149 E.01258
G1 X159.779 Y137.944 E.29083
G1 X159.382 Y138.207 E.01414
G1 X159.382 Y128.3 E.29415
G1 X158.985 Y128.451 E.01261
G1 X158.985 Y138.469 E.29745
G1 X158.897 Y138.527 E.00313
G1 X158.588 Y138.659 E.00998
G1 X158.588 Y128.6 E.29866
G1 X158.192 Y128.741 E.01248
G1 X158.192 Y138.829 E.29953
G1 X157.795 Y138.979 E.0126
G1 X157.795 Y128.882 E.29979
G1 X157.398 Y129.023 E.01251
G1 X157.398 Y139.07 E.29831
G1 X157.001 Y139.16 E.01209
G1 X157.001 Y129.163 E.29682
G1 X156.605 Y129.302 E.01246
G1 X156.605 Y139.21 E.29418
G1 X156.208 Y139.228 E.0118
G1 X156.208 Y129.433 E.29083
G1 X155.811 Y129.563 E.0124
G1 X155.811 Y139.245 E.28747
G1 X155.414 Y139.205 E.01185
G1 X155.414 Y129.693 E.28242
G1 X155.018 Y129.824 E.01238
G1 X155.018 Y139.151 E.27693
G1 X154.621 Y139.091 E.01192
G1 X154.621 Y129.953 E.27132
G1 X154.224 Y130.073 E.01231
G1 X154.224 Y138.962 E.26393
G1 X153.827 Y138.832 E.0124
G1 X153.827 Y130.193 E.2565
G1 X153.431 Y130.313 E.01229
G1 X153.431 Y139.021 E.25855
G1 X153.034 Y139.453 E.01742
G1 X153.034 Y130.433 E.26782
G1 X152.637 Y130.552 E.01231
G1 X152.637 Y139.834 E.27559
G1 X152.24 Y140.132 E.01474
G1 X152.24 Y130.663 E.28115
G1 X151.844 Y130.773 E.0122
G1 X151.844 Y140.394 E.28566
G1 X151.608 Y140.55 E.0084
G1 X151.447 Y140.619 E.0052
G1 X151.447 Y130.883 E.28907
G1 X151.05 Y130.992 E.01222
G1 X151.05 Y140.789 E.29089
G1 X150.653 Y140.959 E.01282
G1 X150.653 Y131.102 E.29267
G1 X150.257 Y131.205 E.01215
G1 X150.257 Y141.06 E.29261
G1 X149.86 Y141.151 E.01209
G1 X149.86 Y131.305 E.29234
G1 X149.463 Y131.405 E.01216
G1 X149.463 Y141.228 E.29166
G1 X149.066 Y141.246 E.0118
G1 X149.066 Y131.505 E.28922
G1 X148.67 Y131.605 E.01213
G1 X148.67 Y141.264 E.28679
G1 X148.273 Y141.251 E.01179
G1 X148.273 Y131.701 E.28355
G1 X147.876 Y131.792 E.01209
G1 X147.876 Y141.197 E.27925
G1 X147.479 Y141.451 E.01399
G1 X147.479 Y131.882 E.28412
G1 X147.083 Y131.972 E.01206
G1 X147.083 Y141.673 E.28804
G1 X146.686 Y141.842 E.01281
G1 X146.686 Y132.063 E.29035
G1 X146.289 Y132.153 E.01209
G1 X146.289 Y142.012 E.29273
G1 X145.892 Y142.11 E.01214
G1 X145.892 Y132.234 E.29323
G1 X145.496 Y132.315 E.012
G1 X145.496 Y142.201 E.29353
G1 X145.099 Y142.275 E.01199
G1 X145.099 Y132.396 E.29332
G1 X144.702 Y132.478 E.01204
G1 X144.702 Y142.293 E.29142
G1 X144.305 Y142.311 E.0118
G1 X144.305 Y132.559 E.28955
G1 X143.909 Y132.635 E.01197
G1 X143.909 Y142.295 E.28682
G1 X143.512 Y142.241 E.0119
G1 X143.512 Y132.707 E.28308
G1 X143.115 Y132.78 E.01199
G1 X143.115 Y142.187 E.27931
G1 X142.718 Y142.077 E.01223
G1 X142.718 Y132.852 E.2739
G1 X142.322 Y132.924 E.01195
G1 X142.322 Y141.948 E.26793
G1 X141.925 Y141.807 E.01251
G1 X141.925 Y132.996 E.26161
G1 X141.528 Y133.06 E.01194
G1 X141.528 Y141.594 E.25339
